X: 6
T: Mockfj\"ard g\aangl\aat
Z: 1997 by John Chambers <jc@trillian.mit.edu>
M: 2/4
L: 1/16
K: D
FG \
| "D"A3B A2G2 | F2D2 F2G2 | ABAF A2d2 | f6 ef | "G"g2bg "D"f2af | "A7"e2g2 "D"d2fd |1,3 c2"A"ec "E7"E^GBG | "A7"A6 \
                                                                                  :|2,4 c2"A7"a2 Acec | "D"d6 :|
|: ef \
| "G"g3a gfga | b2g2 d2B2 | "D"A3f fefg | a6 ef | "A7"~f2e2 edef | g2e2 c2A2 | "D"d2fd "A"c2ec | "E7"B2dB "A"A2 ||
|| ef | "G"g3a gfga | b2g2 d2B2 | "D"A3f fefg | a6 ef | "A7"~f2e2 edef | g2e2 c2A2 | "D"d2a2 "A7"Acec | "D"d6 :|
%%sep 1 1 10cm



